X:1
T:The Two Sisters
M:4/4
L:1/4
K:C
 D| G D/2E/2 G B/2A/2| G E D2| c3/2 A/2 B G| A3| A| B A/2B/2 d d/2B/2|\
 AG/2-A/2 B d/2B/2| A3/2 B/2 G E| D2||
